icons/componentkit.svg

<svg xmlns="http://www.w3.org/2000/svg" viewBox="0 0 256 256">
  <path fill="#26c6da" d="M236.184 256H19.816C8.872 256 0 247.128 0 236.184V19.816C0 8.872 8.872 0 19.816 0h216.368C247.128 0 256 8.872 256 19.816v216.368c0 10.944-8.872 19.816-19.816 19.816"/>
  <path fill="#21afd0" d="m57.448 130.423 54.751-41.891a2.954 2.954 0 0 1 3.613.019l76.696 59.94a2.089 2.089 0 0 1-.002 3.293l-53.772 41.937a3.527 3.527 0 0 1-4.352-.011l-76.953-60.662a1.661 1.661 0 0 1 .019-2.625"/>
  <path fill="#21afd0" d="m57.448 145.517 54.751-41.89a2.952 2.952 0 0 1 3.613.018l76.696 59.94a2.089 2.089 0 0 1-.002 3.293l-53.772 41.937a3.526 3.526 0 0 1-4.352-.011l-76.953-60.662a1.661 1.661 0 0 1 .019-2.625"/>
  <path fill="#1d9cc8" d="m112.199 103.627-46.734 35.756 68.917 54.327a3.527 3.527 0 0 0 4.352.011l46.215-36.043-69.137-54.033a2.952 2.952 0 0 0-3.613-.018"/>
  <path fill="#d3faff" d="m78.173 131.421 52.887-41.523a2.495 2.495 0 0 0 .048-3.885l-14.526-11.999a4.328 4.328 0 0 0-5.422-.073l-53.523 41.841a1.8 1.8 0 0 0-.014 2.827l16.026 12.794a3.644 3.644 0 0 0 4.524.018M100.322 120.596l53.79 41.909c1.26.972 1.3 2.86.082 3.884l-14.42 12.127a4.329 4.329 0 0 1-5.421.12l-54.918-42.274a1.801 1.801 0 0 1-.039-2.827l16.403-12.881a3.644 3.644 0 0 1 4.523-.058M161.203 161.326l30.938-24.132a2.494 2.494 0 0 0 .049-3.885l-14.526-12a4.33 4.33 0 0 0-5.422-.073l-31.575 24.451a1.803 1.803 0 0 0-.014 2.828l16.026 12.793a3.644 3.644 0 0 0 4.524.018"/>
  <path fill="#fff" d="m32.648 136.034-.491-.638.638-.491.491.638zm1.276-.981-.491-.639.638-.491.491.639zm1.276-.982-.49-.639.637-.49.491.638zm1.277-.982-.492-.638.638-.491.492.638zm1.275-.982-.49-.638.638-.491.491.639zm1.277-.981-.491-.639.638-.49.491.638zm1.276-.982-.491-.638.638-.491.491.638zm1.276-.982-.491-.638.638-.491.491.639zm1.277-.981-.492-.639.638-.491.492.639zm1.275-.982-.49-.638.638-.491.491.638zm1.277-.982-.491-.638.638-.491.491.639zm1.276-.981-.491-.639.638-.49.491.638zm1.276-.982-.491-.638.638-.491.491.638zm1.277-.982-.492-.638.638-.491.492.638zm1.275-.981-.49-.638.638-.491.49.638zm1.277-.982-.491-.638.638-.491.491.638zm1.275-.982-.49-.638.512-.394.491.639zM113.08 198.543l-.491-.639.638-.49.491.638zm1.276-.982-.491-.638.638-.491.491.638zm1.276-.982-.491-.638.638-.49.491.638zm1.277-.981-.492-.639.638-.49.492.638zm1.275-.982-.491-.638.639-.491.491.638zm1.277-.982-.492-.638.638-.491.492.638zm1.276-.981-.491-.638.638-.491.491.638zm1.276-.982-.491-.638.638-.491.491.638zm1.276-.981-.491-.639.638-.491.491.639zm1.276-.982-.491-.638.639-.491.49.638zm1.276-.982-.49-.638.638-.491.49.638zm1.276-.982-.49-.638.638-.491.491.638zm1.277-.981-.491-.638.638-.491.491.638zm1.276-.982-.491-.638.638-.491.491.638zm1.276-.981-.491-.639.639-.491.49.639zm1.276-.982-.49-.639.638-.49.49.638zm1.276-.982-.49-.638.512-.394.49.638zM196.009 133.901l-.492-.638.638-.491.492.638zm1.276-.982-.491-.638.638-.491.491.639zm1.276-.981-.491-.639.638-.49.491.638zm1.276-.982-.491-.638.638-.491.491.638zm1.276-.982-.491-.638.639-.491.49.639zm1.277-.981-.492-.639.638-.491.492.639zm1.276-.982-.491-.638.638-.491.491.638zm1.276-.982-.491-.638.638-.491.49.639zm1.276-.981-.491-.639.638-.491.491.639zm1.276-.982-.491-.638.639-.491.49.638zm1.276-.982-.49-.638.638-.491.49.639zm1.276-.981-.49-.639.638-.491.491.639zm1.277-.982-.492-.638.638-.491.492.638zm1.276-.982-.491-.638.638-.491.491.638zm1.276-.981-.491-.639.639-.491.49.639zm1.276-.982-.49-.639.637-.49.491.638zm1.276-.982-.491-.638.513-.394.49.638zM115.404 71.063l-.491-.639.638-.49.491.638zm1.276-.982-.491-.638.638-.491.491.638zm1.276-.982-.491-.638.638-.49.491.638zm1.277-.981-.492-.638.638-.491.491.638zm1.275-.982-.49-.638.638-.491.49.638zm1.277-.982-.491-.638.638-.491.491.639zm1.276-.981-.491-.638.638-.491.491.638zm1.276-.982-.491-.638.638-.491.491.639zm1.277-.982-.492-.638.638-.491.491.639zm1.275-.981-.491-.638.639-.491.49.638zm1.276-.982-.49-.638.638-.491.49.638zm1.276-.981-.49-.639.638-.491.491.639zm1.277-.982-.491-.638.638-.491.491.638zm1.276-.982-.491-.638.638-.491.491.638zm1.276-.981-.491-.639.639-.491.49.639zm1.276-.982-.49-.639.638-.49.49.638zm1.276-.982-.49-.638.512-.394.49.638zM90.105 54.151l.497-.634.634.497-.497.634zm1.267.994.497-.634.634.496-.497.634zm1.268.992.497-.633.633.496-.497.634zm1.267.994.497-.634.633.496-.496.634zm1.267.992.497-.633.634.497-.497.633zm1.268.994.496-.634.634.496-.497.635zm1.267.993.496-.634.634.497-.496.634zm1.267.993.497-.634.633.497-.496.633zm1.267.994.497-.635.634.497-.497.634zm1.267.992.497-.633.634.497-.497.633zm1.268.993.497-.633.633.496-.497.634zm1.267.993.497-.633.634.497-.497.633zm1.267.994.497-.634.634.496-.497.635zm1.268.993.497-.634.633.497-.496.634zm1.267.993.497-.634.634.497-.497.634zm1.268.993.496-.633.634.496-.497.634zm1.267.993.497-.634.508.399-.497.634zM32.483 99.123l.497-.635.634.497-.497.634zm1.267.993.497-.634.634.496-.497.634zm1.268.992.497-.633.633.496-.497.634zm1.267.994.497-.634.633.496-.496.635zm1.267.993.497-.634.634.497-.497.633zm1.268.993.496-.634.634.497-.497.634zm1.267.994.496-.635.634.497-.496.634zm1.267.992.497-.633.633.496-.497.634zm1.267.994.497-.634.634.496-.497.634zm1.267.992.497-.633.634.497-.497.633zm1.268.994.497-.634.633.497-.497.633zm1.267.993.497-.634.634.497-.497.633zm1.267.993.497-.634.634.496-.497.635zm1.268.993.497-.634.633.497-.496.634zm1.267.993.497-.633.634.496-.497.634zm1.267.993.497-.633.634.496-.497.634zm1.267.993.497-.633.509.398-.497.634zM137.808 181.37l.497-.634.634.496-.497.634zm1.267.993.497-.634.634.497-.497.634zm1.268.993.497-.634.633.497-.497.633zm1.267.994.497-.635.633.497-.496.634zm1.267.992.497-.633.634.496-.497.634zm1.268.994.496-.635.634.497-.497.634zm1.267.993.496-.634.634.496-.496.634zm1.267.992.497-.633.633.497-.496.633zm1.267.994.497-.634.634.496-.497.635zm1.267.993.497-.634.634.497-.497.633zm1.268.993.497-.634.633.497-.497.633zm1.267.993.497-.634.634.497-.497.634zm1.267.994.497-.635.634.497-.497.634zm1.268.993.496-.634.634.496-.496.634zm1.267.992.497-.633.633.497-.496.633zm1.267.994.497-.634.634.497-.497.633zm1.268.993.496-.634.509.399-.497.633zM195.398 137.9l.497-.635.634.497-.497.634zm1.267.993.497-.634.634.496-.497.634zm1.268.992.497-.633.633.496-.497.634zm1.267.994.497-.634.634.496-.497.635zm1.267.993.497-.634.634.497-.497.634zm1.268.993.496-.634.634.496-.497.635zm1.267.994.497-.635.633.497-.496.634zm1.267.992.497-.633.634.496-.497.634zm1.267.994.497-.634.634.496-.497.634zm1.267.992.497-.633.634.497-.497.633zm1.268.993.497-.633.633.497-.497.633zm1.267.993.497-.633.634.497-.497.633zm1.267.994.497-.634.634.496-.497.635zm1.268.993.497-.634.633.497-.496.634zm1.267.993.497-.633.634.496-.497.634zm1.268.993.496-.633.634.496-.497.634zm1.267.993.496-.633.509.398-.497.634z" opacity=".8"/>
</svg>

<?xml version="1.0" encoding="UTF-8" standalone="no"?>
<svg width="256px" height="256px" viewBox="0 0 256 256" version="1.1" xmlns="http://www.w3.org/2000/svg" xmlns:xlink="http://www.w3.org/1999/xlink" preserveAspectRatio="xMidYMid">
	<g>
		<path d="M236.184,256 L19.816,256 C8.872,256 0,247.128 0,236.184 L0,19.816 C0,8.872 8.872,0 19.816,0 L236.184,0 C247.128,0 256,8.872 256,19.816 L256,236.184 C256,247.128 247.128,256 236.184,256" fill="#26C6DA"></path>
		<path d="M57.448,130.423 L112.199,88.532 C113.267,87.715 114.752,87.723 115.812,88.551 L192.508,148.491 C193.579,149.328 193.578,150.948 192.506,151.784 L138.734,193.721 C137.454,194.719 135.657,194.715 134.382,193.71 L57.429,133.048 C56.577,132.376 56.586,131.082 57.448,130.423" fill="#21AFD0"></path>
		<path d="M57.448,145.517 L112.199,103.627 C113.267,102.809 114.752,102.817 115.812,103.645 L192.508,163.585 C193.579,164.422 193.578,166.042 192.506,166.878 L138.734,208.815 C137.454,209.814 135.657,209.809 134.382,208.804 L57.429,148.142 C56.577,147.471 56.586,146.176 57.448,145.517" fill="#21AFD0"></path>
		<path d="M112.199,103.627 L65.465,139.383 L134.382,193.71 C135.657,194.715 137.454,194.719 138.734,193.721 L184.949,157.678 L115.812,103.645 C114.752,102.817 113.267,102.809 112.199,103.627" fill="#1D9CC8"></path>
		<path d="M78.173,131.421 L131.06,89.898 C132.311,88.915 132.335,87.027 131.108,86.013 L116.582,74.014 C115.016,72.72 112.761,72.69 111.16,73.941 L57.637,115.782 C56.72,116.498 56.713,117.883 57.623,118.609 L73.649,131.403 C74.97,132.458 76.843,132.465 78.173,131.421" fill="#D3FAFF"></path>
		<path d="M100.322,120.596 L154.112,162.505 C155.372,163.477 155.412,165.365 154.194,166.389 L139.774,178.516 C138.219,179.823 135.964,179.873 134.353,178.636 L79.435,136.362 C78.512,135.653 78.493,134.269 79.396,133.535 L95.799,120.654 C97.111,119.588 98.984,119.564 100.322,120.596" fill="#D3FAFF"></path>
		<path d="M161.203,161.326 L192.141,137.194 C193.393,136.211 193.417,134.323 192.19,133.309 L177.664,121.309 C176.098,120.016 173.842,119.985 172.242,121.236 L140.667,145.687 C139.751,146.403 139.744,147.788 140.653,148.515 L156.679,161.308 C158,162.363 159.874,162.37 161.203,161.326" fill="#D3FAFF"></path>
		<path d="M32.648,136.034 L32.157,135.396 L32.795,134.905 L33.286,135.543 L32.648,136.034 L32.648,136.034 Z M33.924,135.053 L33.433,134.414 L34.071,133.923 L34.562,134.562 L33.924,135.053 L33.924,135.053 Z M35.2,134.071 L34.71,133.432 L35.347,132.942 L35.838,133.58 L35.2,134.071 L35.2,134.071 Z M36.477,133.089 L35.985,132.451 L36.623,131.96 L37.115,132.598 L36.477,133.089 L36.477,133.089 Z M37.752,132.107 L37.262,131.469 L37.9,130.978 L38.391,131.617 L37.752,132.107 L37.752,132.107 Z M39.029,131.126 L38.538,130.487 L39.176,129.997 L39.667,130.635 L39.029,131.126 L39.029,131.126 Z M40.305,130.144 L39.814,129.506 L40.452,129.015 L40.943,129.653 L40.305,130.144 L40.305,130.144 Z M41.581,129.162 L41.09,128.524 L41.728,128.033 L42.219,128.672 L41.581,129.162 L41.581,129.162 Z M42.858,128.181 L42.366,127.542 L43.004,127.051 L43.496,127.69 L42.858,128.181 L42.858,128.181 Z M44.133,127.199 L43.643,126.561 L44.281,126.07 L44.772,126.708 L44.133,127.199 L44.133,127.199 Z M45.41,126.217 L44.919,125.579 L45.557,125.088 L46.048,125.727 L45.41,126.217 L45.41,126.217 Z M46.686,125.236 L46.195,124.597 L46.833,124.107 L47.324,124.745 L46.686,125.236 L46.686,125.236 Z M47.962,124.254 L47.471,123.616 L48.109,123.125 L48.6,123.763 L47.962,124.254 L47.962,124.254 Z M49.239,123.272 L48.747,122.634 L49.385,122.143 L49.877,122.781 L49.239,123.272 L49.239,123.272 Z M50.514,122.291 L50.024,121.653 L50.662,121.162 L51.152,121.8 L50.514,122.291 L50.514,122.291 Z M51.791,121.309 L51.3,120.671 L51.938,120.18 L52.429,120.818 L51.791,121.309 L51.791,121.309 Z M53.066,120.327 L52.576,119.689 L53.088,119.295 L53.579,119.934 L53.066,120.327 L53.066,120.327 Z" opacity="0.800000012" fill="#FFFFFF"></path>
		<path d="M113.08,198.543 L112.589,197.904 L113.227,197.414 L113.718,198.052 L113.08,198.543 L113.08,198.543 Z M114.356,197.561 L113.865,196.923 L114.503,196.432 L114.994,197.07 L114.356,197.561 L114.356,197.561 Z M115.632,196.579 L115.141,195.941 L115.779,195.451 L116.27,196.089 L115.632,196.579 L115.632,196.579 Z M116.909,195.598 L116.417,194.959 L117.055,194.469 L117.547,195.107 L116.909,195.598 L116.909,195.598 Z M118.184,194.616 L117.693,193.978 L118.332,193.487 L118.823,194.125 L118.184,194.616 L118.184,194.616 Z M119.461,193.634 L118.969,192.996 L119.607,192.505 L120.099,193.143 L119.461,193.634 L119.461,193.634 Z M120.737,192.653 L120.246,192.015 L120.884,191.524 L121.375,192.162 L120.737,192.653 L120.737,192.653 Z M122.013,191.671 L121.522,191.033 L122.16,190.542 L122.651,191.18 L122.013,191.671 L122.013,191.671 Z M123.289,190.69 L122.798,190.051 L123.436,189.56 L123.927,190.199 L123.289,190.69 L123.289,190.69 Z M124.565,189.708 L124.074,189.07 L124.713,188.579 L125.203,189.217 L124.565,189.708 L124.565,189.708 Z M125.841,188.726 L125.351,188.088 L125.989,187.597 L126.479,188.235 L125.841,188.726 L125.841,188.726 Z M127.117,187.744 L126.627,187.106 L127.265,186.615 L127.756,187.253 L127.117,187.744 L127.117,187.744 Z M128.394,186.763 L127.903,186.125 L128.541,185.634 L129.032,186.272 L128.394,186.763 L128.394,186.763 Z M129.67,185.781 L129.179,185.143 L129.817,184.652 L130.308,185.29 L129.67,185.781 L129.67,185.781 Z M130.946,184.8 L130.455,184.161 L131.094,183.67 L131.584,184.309 L130.946,184.8 L130.946,184.8 Z M132.222,183.818 L131.732,183.179 L132.37,182.689 L132.86,183.327 L132.222,183.818 L132.222,183.818 Z M133.498,182.836 L133.008,182.198 L133.52,181.804 L134.01,182.442 L133.498,182.836 L133.498,182.836 Z" opacity="0.800000012" fill="#FFFFFF"></path>
		<path d="M196.009,133.901 L195.517,133.263 L196.155,132.772 L196.647,133.41 L196.009,133.901 L196.009,133.901 Z M197.285,132.919 L196.794,132.281 L197.432,131.79 L197.923,132.429 L197.285,132.919 L197.285,132.919 Z M198.561,131.938 L198.07,131.299 L198.708,130.809 L199.199,131.447 L198.561,131.938 L198.561,131.938 Z M199.837,130.956 L199.346,130.318 L199.984,129.827 L200.475,130.465 L199.837,130.956 L199.837,130.956 Z M201.113,129.974 L200.622,129.336 L201.261,128.845 L201.751,129.484 L201.113,129.974 L201.113,129.974 Z M202.39,128.993 L201.898,128.354 L202.536,127.863 L203.028,128.502 L202.39,128.993 L202.39,128.993 Z M203.666,128.011 L203.175,127.373 L203.813,126.882 L204.304,127.52 L203.666,128.011 L203.666,128.011 Z M204.942,127.029 L204.451,126.391 L205.089,125.9 L205.579,126.539 L204.942,127.029 L204.942,127.029 Z M206.218,126.048 L205.727,125.409 L206.365,124.918 L206.856,125.557 L206.218,126.048 L206.218,126.048 Z M207.494,125.066 L207.003,124.428 L207.642,123.937 L208.132,124.575 L207.494,125.066 L207.494,125.066 Z M208.77,124.084 L208.28,123.446 L208.918,122.955 L209.408,123.594 L208.77,124.084 L208.77,124.084 Z M210.046,123.103 L209.556,122.464 L210.194,121.973 L210.685,122.612 L210.046,123.103 L210.046,123.103 Z M211.323,122.121 L210.831,121.483 L211.469,120.992 L211.961,121.63 L211.323,122.121 L211.323,122.121 Z M212.599,121.139 L212.108,120.501 L212.746,120.01 L213.237,120.648 L212.599,121.139 L212.599,121.139 Z M213.875,120.158 L213.384,119.519 L214.023,119.028 L214.513,119.667 L213.875,120.158 L213.875,120.158 Z M215.151,119.176 L214.661,118.537 L215.298,118.047 L215.789,118.685 L215.151,119.176 L215.151,119.176 Z M216.427,118.194 L215.936,117.556 L216.449,117.162 L216.939,117.8 L216.427,118.194 L216.427,118.194 Z" opacity="0.800000012" fill="#FFFFFF"></path>
		<path d="M115.404,71.063 L114.913,70.424 L115.551,69.934 L116.042,70.572 L115.404,71.063 L115.404,71.063 Z M116.68,70.081 L116.189,69.443 L116.827,68.952 L117.318,69.59 L116.68,70.081 L116.68,70.081 Z M117.956,69.099 L117.465,68.461 L118.103,67.971 L118.594,68.609 L117.956,69.099 L117.956,69.099 Z M119.233,68.118 L118.741,67.48 L119.379,66.989 L119.87,67.627 L119.233,68.118 L119.233,68.118 Z M120.508,67.136 L120.018,66.498 L120.656,66.007 L121.146,66.645 L120.508,67.136 L120.508,67.136 Z M121.785,66.154 L121.294,65.516 L121.932,65.025 L122.423,65.664 L121.785,66.154 L121.785,66.154 Z M123.061,65.173 L122.57,64.535 L123.208,64.044 L123.699,64.682 L123.061,65.173 L123.061,65.173 Z M124.337,64.191 L123.846,63.553 L124.484,63.062 L124.975,63.701 L124.337,64.191 L124.337,64.191 Z M125.614,63.209 L125.122,62.571 L125.76,62.08 L126.251,62.719 L125.614,63.209 L125.614,63.209 Z M126.889,62.228 L126.398,61.59 L127.037,61.099 L127.527,61.737 L126.889,62.228 L126.889,62.228 Z M128.165,61.246 L127.675,60.608 L128.313,60.117 L128.803,60.755 L128.165,61.246 L128.165,61.246 Z M129.441,60.265 L128.951,59.626 L129.589,59.135 L130.08,59.774 L129.441,60.265 L129.441,60.265 Z M130.718,59.283 L130.227,58.645 L130.865,58.154 L131.356,58.792 L130.718,59.283 L130.718,59.283 Z M131.994,58.301 L131.503,57.663 L132.141,57.172 L132.632,57.81 L131.994,58.301 L131.994,58.301 Z M133.27,57.32 L132.779,56.681 L133.418,56.19 L133.908,56.829 L133.27,57.32 L133.27,57.32 Z M134.546,56.338 L134.056,55.699 L134.694,55.209 L135.184,55.847 L134.546,56.338 L134.546,56.338 Z M135.822,55.356 L135.332,54.718 L135.844,54.324 L136.334,54.962 L135.822,55.356 L135.822,55.356 Z" opacity="0.800000012" fill="#FFFFFF"></path>
		<path d="M90.105,54.151 L90.602,53.517 L91.236,54.014 L90.739,54.648 L90.105,54.151 L90.105,54.151 Z M91.372,55.145 L91.869,54.511 L92.503,55.007 L92.006,55.641 L91.372,55.145 L91.372,55.145 Z M92.64,56.137 L93.137,55.504 L93.77,56 L93.273,56.634 L92.64,56.137 L92.64,56.137 Z M93.907,57.131 L94.404,56.497 L95.037,56.993 L94.541,57.627 L93.907,57.131 L93.907,57.131 Z M95.174,58.123 L95.671,57.49 L96.305,57.987 L95.808,58.62 L95.174,58.123 L95.174,58.123 Z M96.442,59.117 L96.938,58.483 L97.572,58.979 L97.075,59.614 L96.442,59.117 L96.442,59.117 Z M97.709,60.11 L98.205,59.476 L98.839,59.973 L98.343,60.607 L97.709,60.11 L97.709,60.11 Z M98.976,61.103 L99.473,60.469 L100.106,60.966 L99.61,61.599 L98.976,61.103 L98.976,61.103 Z M100.243,62.097 L100.74,61.462 L101.374,61.959 L100.877,62.593 L100.243,62.097 L100.243,62.097 Z M101.51,63.089 L102.007,62.456 L102.641,62.953 L102.144,63.586 L101.51,63.089 L101.51,63.089 Z M102.778,64.082 L103.275,63.449 L103.908,63.945 L103.411,64.579 L102.778,64.082 L102.778,64.082 Z M104.045,65.075 L104.542,64.442 L105.176,64.939 L104.679,65.572 L104.045,65.075 L104.045,65.075 Z M105.312,66.069 L105.809,65.435 L106.443,65.931 L105.946,66.566 L105.312,66.069 L105.312,66.069 Z M106.58,67.062 L107.077,66.428 L107.71,66.925 L107.214,67.559 L106.58,67.062 L106.58,67.062 Z M107.847,68.055 L108.344,67.421 L108.978,67.918 L108.481,68.552 L107.847,68.055 L107.847,68.055 Z M109.115,69.048 L109.611,68.415 L110.245,68.911 L109.748,69.545 L109.115,69.048 L109.115,69.048 Z M110.382,70.041 L110.879,69.407 L111.387,69.806 L110.89,70.44 L110.382,70.041 L110.382,70.041 Z" opacity="0.800000012" fill="#FFFFFF"></path>
		<path d="M32.483,99.123 L32.98,98.488 L33.614,98.985 L33.117,99.619 L32.483,99.123 L32.483,99.123 Z M33.75,100.116 L34.247,99.482 L34.881,99.978 L34.384,100.612 L33.75,100.116 L33.75,100.116 Z M35.018,101.108 L35.515,100.475 L36.148,100.971 L35.651,101.605 L35.018,101.108 L35.018,101.108 Z M36.285,102.102 L36.782,101.468 L37.415,101.964 L36.919,102.599 L36.285,102.102 L36.285,102.102 Z M37.552,103.095 L38.049,102.461 L38.683,102.958 L38.186,103.591 L37.552,103.095 L37.552,103.095 Z M38.82,104.088 L39.316,103.454 L39.95,103.951 L39.453,104.585 L38.82,104.088 L38.82,104.088 Z M40.087,105.082 L40.583,104.447 L41.217,104.944 L40.721,105.578 L40.087,105.082 L40.087,105.082 Z M41.354,106.074 L41.851,105.441 L42.484,105.937 L41.987,106.571 L41.354,106.074 L41.354,106.074 Z M42.621,107.068 L43.118,106.434 L43.752,106.93 L43.255,107.564 L42.621,107.068 L42.621,107.068 Z M43.888,108.06 L44.385,107.427 L45.019,107.924 L44.522,108.557 L43.888,108.06 L43.888,108.06 Z M45.156,109.054 L45.653,108.42 L46.286,108.917 L45.789,109.55 L45.156,109.054 L45.156,109.054 Z M46.423,110.047 L46.92,109.413 L47.554,109.91 L47.057,110.543 L46.423,110.047 L46.423,110.047 Z M47.69,111.04 L48.187,110.406 L48.821,110.902 L48.324,111.537 L47.69,111.04 L47.69,111.04 Z M48.958,112.033 L49.455,111.399 L50.088,111.896 L49.592,112.53 L48.958,112.033 L48.958,112.033 Z M50.225,113.026 L50.722,112.393 L51.356,112.889 L50.859,113.523 L50.225,113.026 L50.225,113.026 Z M51.492,114.019 L51.989,113.386 L52.623,113.882 L52.126,114.516 L51.492,114.019 L51.492,114.019 Z M52.759,115.012 L53.256,114.379 L53.765,114.777 L53.268,115.411 L52.759,115.012 L52.759,115.012 Z" opacity="0.800000012" fill="#FFFFFF"></path>
		<path d="M137.808,181.37 L138.305,180.736 L138.939,181.232 L138.442,181.866 L137.808,181.37 L137.808,181.37 Z M139.075,182.363 L139.572,181.729 L140.206,182.226 L139.709,182.86 L139.075,182.363 L139.075,182.363 Z M140.343,183.356 L140.84,182.722 L141.473,183.219 L140.976,183.852 L140.343,183.356 L140.343,183.356 Z M141.61,184.35 L142.107,183.715 L142.74,184.212 L142.244,184.846 L141.61,184.35 L141.61,184.35 Z M142.877,185.342 L143.374,184.709 L144.008,185.205 L143.511,185.839 L142.877,185.342 L142.877,185.342 Z M144.145,186.336 L144.641,185.701 L145.275,186.198 L144.778,186.832 L144.145,186.336 L144.145,186.336 Z M145.412,187.329 L145.908,186.695 L146.542,187.191 L146.046,187.825 L145.412,187.329 L145.412,187.329 Z M146.679,188.321 L147.176,187.688 L147.809,188.185 L147.313,188.818 L146.679,188.321 L146.679,188.321 Z M147.946,189.315 L148.443,188.681 L149.077,189.177 L148.58,189.812 L147.946,189.315 L147.946,189.315 Z M149.213,190.308 L149.71,189.674 L150.344,190.171 L149.847,190.804 L149.213,190.308 L149.213,190.308 Z M150.481,191.301 L150.978,190.667 L151.611,191.164 L151.114,191.797 L150.481,191.301 L150.481,191.301 Z M151.748,192.294 L152.245,191.66 L152.879,192.157 L152.382,192.791 L151.748,192.294 L151.748,192.294 Z M153.015,193.288 L153.512,192.653 L154.146,193.15 L153.649,193.784 L153.015,193.288 L153.015,193.288 Z M154.283,194.281 L154.779,193.647 L155.413,194.143 L154.917,194.777 L154.283,194.281 L154.283,194.281 Z M155.55,195.273 L156.047,194.64 L156.68,195.137 L156.184,195.77 L155.55,195.273 L155.55,195.273 Z M156.817,196.267 L157.314,195.633 L157.948,196.13 L157.451,196.763 L156.817,196.267 L156.817,196.267 Z M158.085,197.26 L158.581,196.626 L159.09,197.025 L158.593,197.658 L158.085,197.26 L158.085,197.26 Z" opacity="0.800000012" fill="#FFFFFF"></path>
		<path d="M195.398,137.9 L195.895,137.265 L196.529,137.762 L196.032,138.396 L195.398,137.9 L195.398,137.9 Z M196.665,138.893 L197.162,138.259 L197.796,138.755 L197.299,139.389 L196.665,138.893 L196.665,138.893 Z M197.933,139.885 L198.43,139.252 L199.063,139.748 L198.566,140.382 L197.933,139.885 L197.933,139.885 Z M199.2,140.879 L199.697,140.245 L200.331,140.741 L199.834,141.376 L199.2,140.879 L199.2,140.879 Z M200.467,141.872 L200.964,141.238 L201.598,141.735 L201.101,142.369 L200.467,141.872 L200.467,141.872 Z M201.735,142.865 L202.231,142.231 L202.865,142.727 L202.368,143.362 L201.735,142.865 L201.735,142.865 Z M203.002,143.859 L203.499,143.224 L204.132,143.721 L203.636,144.355 L203.002,143.859 L203.002,143.859 Z M204.269,144.851 L204.766,144.218 L205.4,144.714 L204.903,145.348 L204.269,144.851 L204.269,144.851 Z M205.536,145.845 L206.033,145.211 L206.667,145.707 L206.17,146.341 L205.536,145.845 L205.536,145.845 Z M206.803,146.837 L207.3,146.204 L207.934,146.701 L207.437,147.334 L206.803,146.837 L206.803,146.837 Z M208.071,147.83 L208.568,147.197 L209.201,147.694 L208.704,148.327 L208.071,147.83 L208.071,147.83 Z M209.338,148.823 L209.835,148.19 L210.469,148.687 L209.972,149.32 L209.338,148.823 L209.338,148.823 Z M210.605,149.817 L211.102,149.183 L211.736,149.679 L211.239,150.314 L210.605,149.817 L210.605,149.817 Z M211.873,150.81 L212.37,150.176 L213.003,150.673 L212.507,151.307 L211.873,150.81 L211.873,150.81 Z M213.14,151.803 L213.637,151.17 L214.271,151.666 L213.774,152.3 L213.14,151.803 L213.14,151.803 Z M214.408,152.796 L214.904,152.163 L215.538,152.659 L215.041,153.293 L214.408,152.796 L214.408,152.796 Z M215.675,153.789 L216.171,153.156 L216.68,153.554 L216.183,154.188 L215.675,153.789 L215.675,153.789 Z" opacity="0.800000012" fill="#FFFFFF"></path>
	</g>
</svg>
